X:1
T:Title
%%score { ( 1 3 ) | ( 2 4 ) }
L:1/8
Q:1/4=108
M:4/4
K:Db
V:1 treble nm="Grand Piano"
V:3 treble 
V:2 bass 
V:4 bass 
V:1
 [Fd]3 [Fd] [Fd]2 [FA]2 | [Gc]2 [GB]2 [FA]4 | [EG]3 [EG] [DF]2 [FA]2 | [EG]2 [DF]2 [CE]4 | %4
w: Lester~Price * * *||||
 [Fd]3 [Fd] [Fd]2 [FA]2 | [Gc]2 [GB]2 [FA]4 | [Ee]3 [Ee] [Fe]2 [Fd]2 | [DB]2 [DB]2 [CA]4 | %8
w: ||||
 [EG]3 [FA] [GB]2 [FA]2 | z4 E4 | d3 d e2 e2 | [Af]2 [Ad]2 [Ae]4 | z4 [Ee]2 d2 | z4 c4 | %14
w: ||||||
 d3 d d2 e2 |[M:6/4] f3 e3 [Fd]6 |] %16
w: ||
V:2
 [D,A,]3 [D,A,] [D,A,]2 [D,A,]2 | [D,B,]2 [D,C]2 [D,D]4 | [C,A,]3 [C,A,] [D,A,]2 [D,A,]2 | %3
 [A,,A,]2 [A,,A,]2 [A,,A,]4 | [D,A,]3 [D,A,] [D,A,]2 [D,A,]2 | [D,B,]2 [D,C]2 [D,D]4 | %6
 [C,A,]3 [C,A,] [D,A,]2 [D,A,]2 | [E,=G,]2 [E,G,]2 [A,,A,]4 | [A,,A,]3 [A,,A,] [A,,A,]2 [A,,A,]2 | %9
 C,2 D,F, [A,C]4 | [F,D]3 [F,D][K:treble] [A,CA]2 [A,CA]2 | [D,D]2 [F,D]2 [A,C]4 | z4 z2 E2 | %13
 [A,E]3 [A,E] [A,E]4 | [F,D]3 [F,D][K:treble] [B,DF]2 [=A,DG]2 | %15
[M:6/4] [A,DA]3[K:bass] [A,,A,CG]3 [D,A,D]6 |] %16
V:3
 x8 | x8 | x8 | x8 | x8 | x8 | x8 | x8 | x8 | [A,EG]2 [A,DF]2 z2 G,2 | x8 | x8 | %12
 [Be]3 [Be] z =G, z B, | c3 c z2 G,2 | x8 |[M:6/4] x12 |] %16
V:4
 x8 | x8 | x8 | x8 | x8 | x8 | x8 | x8 | x8 | x8 | x4[K:treble] x4 | x8 | %12
 [=G,D]3 [G,D] [G,B,]E,[F,A,]G, | x8 | x4[K:treble] x4 |[M:6/4] x3[K:bass] x9 |] %16

